X: 100246
M: 6/8
L: 1/16
Q: "Andante"
K: Gm
(uE/=E/^F) |\
|: (uF/G/A) |\
(B3cBc) (B3ABF) | c3dc2 (c2dcBA) | (B3cde) (f3gfe) | (d4^cd) uf4uF2 |
P: V1
|: (uD/=E/^F) |\
(G^F)GABG (BA)BcdB | (cB)A=efd (dc)BAG^F | G2g2f2 (d>edcBA) | (G4Bc) d4 :|
|: (FE) |\
(DB)B,DBc (BA)GABG | c2C2c2- c(dcBcA) | B2(F2{GF}E2) D2(fedc) | (d4^cd) f4(uF/G/A) |
P: V2
|: uD/=E/^F |\
(G2DCB,)A, G,2 (B>c Bcd) | F2f2d2 (dcBAG^F) | G2g2f2 (d>edcBA) | G2(DCB,)A, G,4 :|
|: (uF/G/A) |\
(.BA/G/ FEDC B,/B/A/G/) c2C2c2 | d^FDgf(=e/f/) (g3a{ga}b2) | (dfbdcB) (AcfcBA) | (G4Bc) d4 :|
P: V3
|: uD/=E/^F |\
(.G4.G2) B3cd2 | F2f2d2 (dcBAG^F) | G2g2f2 (d>edcBA) | (G4Bc) d4 :|
|: (uF/G/A) |\


